X: 282
Q: "Slowish"
M: 6/8
L: 1/8
K: Eb
V: 1
.E.E.E ~F2B | G2E (EF).G | A>Bc {c}BAG | {G}FDB, (B,C).D |\
.E.E.E ~F2B | ~G2B (Bed) | .c(Ac) .B(DF) | .E.E.E .E2 :|
|: (G/A/) |\
(Bde) (gec) | (cag) {g}Tf2g/a/ | (bg).e .c(ag) | .f=Ac ~B2G/_A/ |\
.B(BG) .c(cA) | GBe Hg2 (f/4e/4d/4c/4) | .B(Gc) .B(DF) | .E.E.E E2 :|
V: 2 clef=bass middle=d
z |\
e2E Bdf | eBG E2z | f2a g2e | Bdf B2z |\
e2E Bdf | eBG E2z | A2a b2B | eBG E2 :|
|: z |\
e'3 e3 | a2=a b2z | e2g a2=a | b2f B2z |\


